X: 1435
T: An Ugly Customer
R: strathspey
M: 4/4
K: Gmajor
|:D/|G2 B>d d2 B>d|d>GB>d c<A A2|(3GAG B>d d>GB>e|d>BA>c B<GG3/2:|
d/|g2 g>d e2 e>g|d2 B>d c<AA>d|(3gag g>d (3efe e>g|d>c (3ABc B<GG>d|
g2 g>d e>^de>g|d2 (3Bcd c<AA>D|G>A (3Bcd e2 f<a|g>ed>c B<GG3/2||

